build/img/sprite/icon-telegram.svg

<svg width="32" height="32" viewBox="0 0 32 32" fill="none" xmlns="http://www.w3.org/2000/svg">
<rect width="32" height="32" rx="5" fill="currentColor"/>
<path fill-rule="evenodd" clip-rule="evenodd" d="M21.4675 22.6322L24 10.0812C24 9.2455 22.8319 9.75214 22.8373 9.75214L8.62418 15.2364C8.62418 15.2364 7.9499 15.4609 8.00298 15.8788C8.0561 16.2966 8.60298 16.4899 8.60298 16.4899L12.1761 17.6756L12.1822 17.6785C12.1815 17.6765 12.1813 17.6755 12.1813 17.6755L20.7665 12.3114C20.7665 12.3114 21.2603 12.0137 21.2443 12.3114C21.2443 12.3114 21.3346 12.3636 21.0691 12.6091C20.8036 12.8546 14.3263 18.5791 14.3263 18.5791L14.3125 18.6931L20.1401 23.0867C21.1118 23.5045 21.4675 22.6322 21.4675 22.6322Z" fill="white"/>
</svg>

<svg width="32" height="32" fill="none" xmlns="http://www.w3.org/2000/svg"><rect width="32" height="32" rx="5" fill="currentColor"/><path fill-rule="evenodd" clip-rule="evenodd" d="M21.468 22.632L24 10.082c0-.837-1.168-.33-1.163-.33L8.624 15.236s-.674.225-.621.643c.053.418.6.61.6.61l3.573 1.187.006.003v-.003l8.585-5.365s.493-.297.477 0c0 0 .09.053-.175.298-.265.246-6.743 5.97-6.743 5.97l-.014.114 5.828 4.394c.972.418 1.328-.455 1.328-.455z" fill="#fff"/></svg>
